X:1
T:Consecration
T:Phoebe Palmer Knapp
T:Consecration
T:Public Domain
T:Public Domain
C:Phoebe Palmer Knapp
Z:Public Domain
%%score ( 1 2 ) ( 3 4 )
L:1/8
M:3/4
K:Eb
V:1 treble 
V:2 treble 
V:3 bass 
V:4 bass 
V:1
 [DB]2 | B4 B2 | c4 c2 | (E4 D2) | [EG]4 E2 | [CE]4 [B,E]2 | [FA]4 [EG]2 | F4 E2 | [DF]4 [DB]2 | %9
w: 1.~My|bo- dy,|and spir-|Je- *|I give|Thee, A|con- se-|crat- *|ed offer-|
w: 2.~O|Je- sus,|y Sav-|I *|in Thy|name; I|look for|Thy *|sal- va-|
w: 3.~O|let the|des- cend-|Just *|up- on|soul, Con-|sume my|hum- *|ble offer-|
w: 4.~I’m|Thine, O|èd Je-|Washed *|Thy pre-|blood, Now|seal me|by *|thy Spir-|
 B4 B2 | c4 c2 | (E4 D2) | [EG]4 E2 | [CE]4 E2 | G4 F2 | B,4 C2 | [B,E]4 ||"^Refrain" B2 | %18
w: ing, Thine|er- more|be. *|||||||
w: tion, Thy|ise now|claim. *|all is|the al-|tar, I’m|ting *|for|the|
w: ing, And|and make|whole! *|||||||
w: it A|ri- fice|God. *|||||||
 [Ge]4 [EG]2 | [EA]4 [Ec]2 | (E4 D2) | [EG]4 [FB]2 | [Ee]2 [Ge]4 | [Fd]4 [Ec]2 | D4 ^C2 | (D4 E2) | %26
w: ||||||||
w: fire; Wait-|ing, wai-|ting, *|ing, I’m|wait- ing|for the|fire. *||
w: ||||||||
w: ||||||||
 (c2 z2) F2 x2 | [FB]2 [EB]4 x2 | (E4 D2) | [EG]4 [Ec]2 | [EB]4 E2 | [DG]4 [DF]2 | E6- | E4 |] %34
w: ||||||||
w: ||||||||
w: ||||||||
w: ||||||||
V:2
 x2 | E6 | E6 | F6 | x4 E2 | x6 | x6 | F6- | x6 | E6 | E6 | F6 | x4 E2 | x6 | D6 | E6- | x4 || x2 | %18
w: |soul|it,|sus,|to|||||ev-|to||||||||
w: |might-|ior,|trust|great|||||prom-|I|My|on||wai-||||
w: |fire,|ing|now|my|||||cleanse|me||||||||
w: |bless-|sus,|by|cious|||||sac-|to||||||||
 x6 | x6 | B6 | x6 | x6 | x6 | B6- | B6 | E4 c4 | x8 | A6 | x6 | x6 | x6 | x6 | x4 |] %34
w: ||||||||||||||||
w: ||wait-||||||||||||||
w: ||||||||||||||||
w: ||||||||||||||||
V:3
 [B,,F,]2 | [E,G,]6 | [A,,A,]6 | (F,4 B,2) | B,4 G,2 | A,4 G,2 | D,4 E,2 | ([D,B,]4 [C,F,]2 | %8
 [B,,F,]4) [B,,F,]2 | [E,G,]6 | [A,,A,]6 | (F,4 B,2) | B,4 G,2 | [A,,A,]4 [C,A,]2 | B,4 A,2 | %15
 G,4 A,2 | [E,G,]4 || B,2 | E4 D2 | C2 B,2 [E,A,]2 | ([E,G,]4 [F,A,]2) | (G,2 E,2) [D,B,]2 | %22
 G,2 C2 B,2 | =A,2 G,2 [F,A,]2 | F,4 =E,2 | (F,4 G,2) | [A,,A,]4 [A,D]2 x2 | D2 z2 G,2 x2 | %28
 [F,C]4 [B,,B,]2 | [C,G,]4 [A,,A,]2 | [B,,G,]6 | B,4 A,2 | [E,G,]6- | [E,G,]4 |] %34
V:4
 x2 | x6 | x6 | B,,6 | E,6 | E,6 | B,6 | x6 | x6 | x6 | x6 | B,,6 | E,6 | x6 | B,,6 | E,6- | x4 || %17
 x2 | E,6 | E,4 x2 | x6 | B,4 x2 | C,6 | F,4 x2 | B,,6- | B,,6 | x8 | G,4 C4 | x6 | x6 | x6 | %31
 B,,6 | x6 | x4 |] %34

